shader insideStraw
(
    color inside = color(1,1,1),
    output color Cout = 0,

)
{
    float base_n = noise("simplex", P*80) * 0.7;
    color base_noise = mix(inside, 0.7, base_n);

    Cout = base_noise;
}